src/images/nunjucks.svg

<?xml version="1.0" encoding="UTF-8"?>
<svg viewBox="0 0 390 512" version="1.1" xmlns="http://www.w3.org/2000/svg" xmlns:xlink="http://www.w3.org/1999/xlink">
    <!-- Generator: Sketch 51.1 (57501) - http://www.bohemiancoding.com/sketch -->
    <title>file-type-style-variant-clean-nunjucks</title>
    <desc>Created with Sketch.</desc>
    <defs></defs>
    <g id="Misc" stroke="none" stroke-width="1" fill="none" fill-rule="evenodd">
        <g id="file-type-style-variant-clean-nunjucks">
            <g id="Nunjucks-Dark" transform="translate(0.000000, -0.000000)">
                <path d="M388.62,123.087107 L266.032893,0.5 L2,0.5 C1.17157288,0.5 0.5,1.17157288 0.5,2 L0.5,510 C0.5,510.828427 1.17157288,511.5 2,511.5 L387.12,511.5 C387.948427,511.5 388.62,510.828427 388.62,510 L388.62,123.087107 Z" id="Rectangle-2" stroke="#52BA63" fill="#18501B"></path>
                <path d="M60.9792,215.04 L73.3696,215.04 L73.3696,286.72 L61.0816,286.72 L52.0704,255.3856 L52.0704,286.72 L39.7824,286.72 L39.7824,215.04 L51.968,215.04 L60.9792,244.4288 L60.9792,215.04 Z M100.7104,232.0384 L113.1008,232.0384 L113.1008,279.1424 C113.1008,281.19041 112.366941,282.965326 110.8992,284.4672 C109.431459,285.969074 107.639477,286.72 105.5232,286.72 L87.0912,286.72 C84.9749228,286.72 83.1829407,285.969074 81.7152,284.4672 C80.2474593,282.965326 79.5136,281.19041 79.5136,279.1424 L79.5136,232.0384 L91.8016,232.0384 L91.8016,274.3296 L100.7104,274.3296 L100.7104,232.0384 Z M152.9344,239.616 L152.9344,286.72 L140.544,286.72 L140.544,244.3264 L131.6352,244.3264 L131.6352,286.72 L119.3472,286.72 L119.3472,232.0384 L145.3568,232.0384 C147.473077,232.0384 149.265059,232.772259 150.7328,234.24 C152.200541,235.707741 152.9344,237.499723 152.9344,239.616 Z M179.2512,274.3296 L179.2512,232.0384 L191.6416,232.0384 L191.6416,279.04 C191.6416,281.156277 190.890674,282.965326 189.3888,284.4672 C187.886926,285.969074 186.077877,286.72 183.9616,286.72 L165.4272,286.72 C163.310923,286.72 161.518941,285.969074 160.0512,284.4672 C158.583459,282.965326 157.8496,281.156277 157.8496,279.04 L157.8496,264.192 L170.24,261.3248 L170.24,274.3296 L179.2512,274.3296 Z M219.0848,232.0384 L231.4752,232.0384 L231.4752,279.1424 C231.4752,281.19041 230.741341,282.965326 229.2736,284.4672 C227.805859,285.969074 226.013877,286.72 223.8976,286.72 L205.4656,286.72 C203.349323,286.72 201.557341,285.969074 200.0896,284.4672 C198.621859,282.965326 197.888,281.19041 197.888,279.1424 L197.888,232.0384 L210.176,232.0384 L210.176,274.3296 L219.0848,274.3296 L219.0848,232.0384 Z M259.0208,274.432 L259.0208,264.6016 L271.3088,261.7344 L271.3088,279.1424 C271.3088,281.258677 270.574941,283.050659 269.1072,284.5184 C267.639459,285.986141 265.847477,286.72 263.7312,286.72 L245.2992,286.72 C243.182923,286.72 241.390941,285.986141 239.9232,284.5184 C238.455459,283.050659 237.7216,281.258677 237.7216,279.1424 L237.7216,239.616 C237.7216,237.499723 238.455459,235.707741 239.9232,234.24 C241.390941,232.772259 243.182923,232.0384 245.2992,232.0384 L263.7312,232.0384 C265.847477,232.0384 267.639459,232.772259 269.1072,234.24 C270.574941,235.707741 271.3088,237.499723 271.3088,239.616 L271.3088,249.9584 L259.0208,252.8256 L259.0208,244.3264 L250.0096,244.3264 L250.0096,274.432 L259.0208,274.432 Z M301.1072,259.2768 L312.7808,286.72 L300.3904,286.72 L291.1744,265.4208 L289.7408,265.4208 L289.7408,286.72 L277.4528,286.72 L277.4528,232.0384 L289.7408,232.0384 L289.7408,253.1328 L291.072,253.1328 L300.0832,232.0384 L312.7808,232.0384 L301.1072,259.2768 Z M328.0384,253.1328 L341.76,253.1328 C343.876277,253.1328 345.668259,253.866659 347.136,255.3344 C348.603741,256.802141 349.3376,258.594123 349.3376,260.7104 L349.3376,279.1424 C349.3376,281.19041 348.603741,282.965326 347.136,284.4672 C345.668259,285.969074 343.876277,286.72 341.76,286.72 L323.328,286.72 C321.211723,286.72 319.419741,285.969074 317.952,284.4672 C316.484259,282.965326 315.7504,281.19041 315.7504,279.1424 L315.7504,272.896 L328.0384,269.9264 L328.0384,274.3296 L336.9472,274.3296 L336.9472,265.4208 L323.328,265.4208 C321.211723,265.4208 319.419741,264.686941 317.952,263.2192 C316.484259,261.751459 315.7504,259.959477 315.7504,257.8432 L315.7504,239.5136 C315.7504,237.46559 316.484259,235.707741 317.952,234.24 C319.419741,232.772259 321.211723,232.0384 323.328,232.0384 L341.76,232.0384 C343.876277,232.0384 345.668259,232.772259 347.136,234.24 C348.603741,235.707741 349.3376,237.46559 349.3376,239.5136 L349.3376,245.6576 L336.9472,248.5248 L336.9472,244.3264 L328.0384,244.3264 L328.0384,253.1328 Z" id="Nunjucks" fill="#52BA63"></path>
            </g>
        </g>
    </g>
</svg>

<svg viewBox="0 0 390 512" xmlns="http://www.w3.org/2000/svg"><g fill="none" fill-rule="evenodd"><path d="M388.62 123.087 266.033.5H2A1.5 1.5 0 0 0 .5 2v508a1.5 1.5 0 0 0 1.5 1.5h385.12a1.5 1.5 0 0 0 1.5-1.5V123.087Z" stroke="#52BA63" fill="#18501B"/><path d="M60.98 215.04h12.39v71.68H61.082l-9.012-31.334v31.334H39.782v-71.68h12.186l9.011 29.389V215.04Zm39.73 16.998h12.39v47.104c0 2.048-.733 3.823-2.2 5.325-1.469 1.502-3.26 2.253-5.377 2.253H87.091c-2.116 0-3.908-.75-5.376-2.253-1.468-1.502-2.201-3.277-2.201-5.325v-47.104h12.288v42.292h8.908v-42.292Zm52.224 7.578v47.104h-12.39v-42.394h-8.909v42.394h-12.288v-54.682h26.01c2.116 0 3.908.734 5.376 2.202 1.468 1.468 2.201 3.26 2.201 5.376Zm26.317 34.714v-42.292h12.39v47.002c0 2.116-.75 3.925-2.252 5.427-1.502 1.502-3.311 2.253-5.427 2.253h-18.535c-2.116 0-3.908-.75-5.376-2.253-1.468-1.502-2.201-3.31-2.201-5.427v-14.848l12.39-2.867v13.005h9.011Zm39.834-42.292h12.39v47.104c0 2.048-.734 3.823-2.201 5.325-1.468 1.502-3.26 2.253-5.376 2.253h-18.432c-2.117 0-3.909-.75-5.376-2.253-1.468-1.502-2.202-3.277-2.202-5.325v-47.104h12.288v42.292h8.909v-42.292Zm39.936 42.394v-9.83l12.288-2.868v17.408c0 2.117-.734 3.909-2.202 5.376-1.468 1.468-3.26 2.202-5.376 2.202H245.3c-2.116 0-3.908-.734-5.376-2.202-1.468-1.467-2.201-3.26-2.201-5.376v-39.526c0-2.116.733-3.908 2.201-5.376 1.468-1.468 3.26-2.202 5.376-2.202h18.432c2.116 0 3.908.734 5.376 2.202 1.468 1.468 2.202 3.26 2.202 5.376v10.342l-12.288 2.868v-8.5h-9.011v30.106h9.01Zm42.086-15.155 11.674 27.443h-12.39l-9.217-21.3h-1.433v21.3h-12.288v-54.682h12.288v21.095h1.331l9.011-21.095h12.698l-11.674 27.239Zm26.931-6.144h13.722c2.116 0 3.908.734 5.376 2.201 1.468 1.468 2.202 3.26 2.202 5.376v18.432c0 2.048-.734 3.823-2.202 5.325-1.468 1.502-3.26 2.253-5.376 2.253h-18.432c-2.116 0-3.908-.75-5.376-2.253-1.468-1.502-2.202-3.277-2.202-5.325v-6.246l12.288-2.97v4.404h8.91v-8.91h-13.62c-2.116 0-3.908-.733-5.376-2.2-1.468-1.469-2.202-3.26-2.202-5.377v-18.33c0-2.047.734-3.805 2.202-5.273 1.468-1.468 3.26-2.202 5.376-2.202h18.432c2.116 0 3.908.734 5.376 2.202 1.468 1.468 2.202 3.226 2.202 5.274v6.144l-12.39 2.867v-4.199h-8.91v8.807Z" fill="#52BA63"/></g></svg>
